X:1
T:Communion, 64.64.664
T:Communion, 64.64.664
T:Samuel Sebastian Wesley, 1872
T:Public Domain Courtesy of the Cyber Hymnal™
C:Samuel Sebastian Wesley, 1872
Z:Public Domain
Z:Courtesy of the Cyber Hymnal™
%%score ( 1 2 ) ( 3 4 )
L:1/8
Q:1/4=110
M:3/4
K:F
V:1 treble 
V:2 treble 
V:3 bass 
V:4 bass 
V:1
 [FA]2 [EG]2 F2 | [FG]3 [EG] [FA]2 | [Fd]2 [Ec]2 [DB]2 | [CA]6 | [FA]2 [Fc]2 [Af]2 | %5
 [Ge]2 d2 [A^c]2 | [Ad]2 [Gc]2 [FB]2 | [EA]6 | F2 [GB]2 [FA]2 | [FA]3 [EG] F2 | [FA]2 [FB]2 [Fc]2 | %11
 [Fd]3 [Ee] [Df]2 | [GB]2 [FA]2 [EG]2 | F6 |] %14
V:2
 x4 F2 | x6 | x6 | x6 | x6 | x2 (FG) x2 | x6 | x6 | F2 x4 | x4 F2 | x6 | x6 | x6 | F6 |] %14
V:3
 [F,C]2 [C,B,]2 [D,A,]2 | [B,,D]3 [C,C] [F,C]2 | [B,,B,]2 [B,,F,]2 [B,,F,]2 | F,6 | %4
 [F,C]2 [A,C]2 [F,C]2 | [G,B,]2 [B,D]2 [A,E]2 | [F,D]2 [G,E]2 [G,,D]2 | [A,,^C]6 | %8
 [A,C]2 [E,C]2 [F,C]2 | [C,C]3 [B,,C] [A,,C]2 | [F,,_E]2 [G,,D]2 [A,,C]2 | (C2 B,)[C,A,] [D,A,]2 | %12
 [B,,D]2 [C,C]2 [C,B,]2 | [F,A,]6 |] %14
V:4
 x6 | x6 | x6 | F,6 | x6 | x6 | x6 | x6 | x6 | x6 | x6 | B,,3 x3 | x6 | x6 |] %14

